X:1
T:Springfield Mountain
M:3/4
L:1/8
K:C
 G2| ce G3/2- A/2- Ge| fe d2 G2| Bd G3/2- A/2- GG| ABc-e-c G| ce G2 e2|\
 fed GB d| G3/2- A/2- GG AB|c-e c2||
